dist/img/developers.svg

<svg width="184" height="117" viewBox="0 0 184 117" fill="none" xmlns="http://www.w3.org/2000/svg">
<g filter="url(#filter0_d_40_3648)">
<path fill-rule="evenodd" clip-rule="evenodd" d="M163.035 101.124C163.035 103.33 161.245 105.111 159.044 105.111H24.8471C22.646 105.111 20.8571 103.33 20.8571 101.124V5.57851C20.8571 3.3726 22.646 1.59082 24.8471 1.59082H159.044C161.245 1.59082 163.035 3.3726 163.035 5.57851V101.124Z" fill="white"/>
<path fill-rule="evenodd" clip-rule="evenodd" d="M27.4219 96.1508H156.645V8.56055H27.4219V96.1508Z" fill="#191551"/>
<mask id="mask0_40_3648" style="mask-type:alpha" maskUnits="userSpaceOnUse" x="3" y="102" width="178" height="10">
<path fill-rule="evenodd" clip-rule="evenodd" d="M3 102.122H180.89V111.082H3V102.122Z" fill="white"/>
</mask>
<g mask="url(#mask0_40_3648)">
<path fill-rule="evenodd" clip-rule="evenodd" d="M2.99994 102.122C3.53024 107.135 8.79882 111.082 15.2819 111.082H168.606C175.093 111.082 180.358 107.135 180.891 102.122H2.99994Z" fill="#EFEFEF"/>
</g>
<path fill-rule="evenodd" clip-rule="evenodd" d="M68.4951 105.111H115.396V102.121H68.4951V105.111Z" fill="#CCCCCC"/>
<path fill-rule="evenodd" clip-rule="evenodd" d="M88.3628 39.7139H66.8161C60.2897 39.7139 55 45.0141 55 51.552V66.8722C55 72.0564 58.3316 76.4515 62.9626 78.0534L63.3405 86.2638L73.9559 78.7104H88.3628C94.8885 78.7104 100.179 73.4101 100.179 66.8722V51.552C100.179 45.0141 94.8885 39.7139 88.3628 39.7139Z" fill="#31C5FF"/>
<path fill-rule="evenodd" clip-rule="evenodd" d="M114.391 18H85.964C77.3542 18 70.375 24.9923 70.375 33.6181V53.8296C70.375 62.4555 77.3542 69.4477 85.964 69.4477H104.971L118.976 79.4129L119.474 68.5815C125.584 66.4676 129.98 60.669 129.98 53.8296V33.6181C129.98 24.9923 123 18 114.391 18Z" fill="white"/>
<path fill-rule="evenodd" clip-rule="evenodd" d="M79.2227 42.2555L90.6896 36.3379V38.0465L81.026 42.8996V42.9486L90.6896 47.8017V49.5103L79.2227 43.5927V42.2555Z" fill="#043299"/>
<path fill-rule="evenodd" clip-rule="evenodd" d="M97.5352 50.501L104.43 32.5498H106.111L99.1916 50.501H97.5352Z" fill="#043299"/>
<path fill-rule="evenodd" clip-rule="evenodd" d="M124.377 43.6182L112.91 49.5113V47.8027L122.647 42.9496V42.8998L112.91 38.0474V36.3389L124.377 42.232V43.6182Z" fill="#043299"/>
</g>
<defs>
<filter id="filter0_d_40_3648" x="0" y="0.59082" width="183.891" height="115.491" filterUnits="userSpaceOnUse" color-interpolation-filters="sRGB">
<feFlood flood-opacity="0" result="BackgroundImageFix"/>
<feColorMatrix in="SourceAlpha" type="matrix" values="0 0 0 0 0 0 0 0 0 0 0 0 0 0 0 0 0 0 127 0" result="hardAlpha"/>
<feOffset dy="2"/>
<feGaussianBlur stdDeviation="1.5"/>
<feColorMatrix type="matrix" values="0 0 0 0 0 0 0 0 0 0 0 0 0 0 0 0 0 0 0.15 0"/>
<feBlend mode="normal" in2="BackgroundImageFix" result="effect1_dropShadow_40_3648"/>
<feBlend mode="normal" in="SourceGraphic" in2="effect1_dropShadow_40_3648" result="shape"/>
</filter>
</defs>
</svg>

<svg width="184" height="117" fill="none" xmlns="http://www.w3.org/2000/svg"><g filter="url(#filter0_d_40_3648)"><path fill-rule="evenodd" clip-rule="evenodd" d="M163.035 101.124a3.988 3.988 0 01-3.991 3.987H24.847a3.988 3.988 0 01-3.99-3.987V5.579a3.988 3.988 0 013.99-3.988h134.197a3.99 3.99 0 013.991 3.988v95.545z" fill="#fff"/><path fill-rule="evenodd" clip-rule="evenodd" d="M27.422 96.15h129.223V8.56H27.422v87.59z" fill="#191551"/><mask id="mask0_40_3648" style="mask-type:alpha" maskUnits="userSpaceOnUse" x="3" y="102" width="178" height="10"><path fill-rule="evenodd" clip-rule="evenodd" d="M3 102.122h177.89v8.96H3v-8.96z" fill="#fff"/></mask><g mask="url(#mask0_40_3648)"><path fill-rule="evenodd" clip-rule="evenodd" d="M3 102.122c.53 5.013 5.799 8.96 12.282 8.96h153.324c6.487 0 11.752-3.947 12.285-8.96H3z" fill="#EFEFEF"/></g><path fill-rule="evenodd" clip-rule="evenodd" d="M68.495 105.111h46.901v-2.99h-46.9v2.99z" fill="#CCC"/><path fill-rule="evenodd" clip-rule="evenodd" d="M88.363 39.714H66.816C60.29 39.714 55 45.014 55 51.552v15.32c0 5.184 3.332 9.58 7.963 11.181l.377 8.21 10.616-7.553h14.407c6.525 0 11.816-5.3 11.816-11.838v-15.32c0-6.538-5.29-11.838-11.816-11.838z" fill="#31C5FF"/><path fill-rule="evenodd" clip-rule="evenodd" d="M114.391 18H85.964c-8.61 0-15.589 6.992-15.589 15.618V53.83c0 8.626 6.98 15.618 15.589 15.618h19.007l14.005 9.965.498-10.831c6.11-2.114 10.506-7.913 10.506-14.752V33.618C129.98 24.992 123 18 114.391 18z" fill="#fff"/><path fill-rule="evenodd" clip-rule="evenodd" d="M79.223 42.255l11.467-5.917v1.709L81.026 42.9v.049l9.664 4.853v1.708l-11.467-5.917v-1.338zm18.312 8.246l6.895-17.951h1.681l-6.92 17.95h-1.656zm26.842-6.883l-11.467 5.893v-1.708l9.737-4.853v-.05l-9.737-4.853V36.34l11.467 5.893v1.386z" fill="#043299"/></g><defs><filter id="filter0_d_40_3648" x="0" y=".591" width="183.891" height="115.491" filterUnits="userSpaceOnUse" color-interpolation-filters="sRGB"><feFlood flood-opacity="0" result="BackgroundImageFix"/><feColorMatrix in="SourceAlpha" values="0 0 0 0 0 0 0 0 0 0 0 0 0 0 0 0 0 0 127 0" result="hardAlpha"/><feOffset dy="2"/><feGaussianBlur stdDeviation="1.5"/><feColorMatrix values="0 0 0 0 0 0 0 0 0 0 0 0 0 0 0 0 0 0 0.15 0"/><feBlend in2="BackgroundImageFix" result="effect1_dropShadow_40_3648"/><feBlend in="SourceGraphic" in2="effect1_dropShadow_40_3648" result="shape"/></filter></defs></svg>
